svg/microsoft/1669660790-microsoft-logo.svg

<svg xmlns="http://www.w3.org/2000/svg" fill="none" viewBox="0 0 113 23">
  <path fill="#F25022" d="M0 0h11.4793c-.0008 3.6472 0 7.29427-.0008 10.9415H0V0Z"/>
  <path fill="#80BA01" d="M12.6513 0h11.4793c0 3.6472.0007 7.29427-.0008 10.9415-3.8257-.0007-7.652 0-11.4778 0-.0014-3.64723-.0007-7.2943-.0007-10.9415Z"/>
  <path fill="#777" d="M103.516 4.16937c1.059-.65656 2.426-.71765 3.619-.40489.01.67566.001 1.35173.004 2.0278-.566-.23776-1.233-.39295-1.829-.15968-.473.17878-.755.64139-.828 1.10399-.089.5869-.031 1.18152-.047 1.77165 1.211.00267 2.422.0007 3.632.00126.01-.7491-.009-1.49891.011-2.24815.823-.2233 1.637-.4737 2.456-.70894.007.98687-.009 1.97472.009 2.96243.819-.01124 1.638-.00267 2.457-.00534v1.9216c-.822-.0321-1.645-.0087-2.466-.0112.003 1.1047 0 2.2094.001 3.3146.013.6119-.034 1.2269.041 1.8368.045.3596.182.7578.536.9438.593.316 1.344.1782 1.888-.169v1.9406c-.71.2937-1.502.3832-2.27.3312-.728-.0513-1.482-.3036-1.957-.8558-.549-.6235-.69-1.4681-.701-2.2577-.006-1.6956.001-3.3911-.003-5.0872-1.211-.0007-2.423-.0012-3.633.0007-.002 2.6606-.001 5.3217-.001 7.9824h-2.483c0-2.6602-.003-5.3196.002-7.9797-.576-.0105-1.152.0027-1.728-.0086.002-.63152.005-1.26364-.002-1.8959.573-.0125 1.147-.00716 1.721-.00323.042-.83968-.092-1.70395.171-2.52215.223-.73843.718-1.40481 1.4-1.82135Zm-53.1543.13743c.5004-.07233 1.0423.09072 1.374.46387.389.40882.4606 1.05948.1724 1.53711-.3186.53886-1.0314.78913-1.6526.65978-.6446-.11038-1.1818-.68155-1.1528-1.3183-.0186-.67018.5695-1.26761 1.259-1.34246Zm-19.0264.29317h3.6106c1.1238 2.71989 2.2559 5.43713 3.381 8.15713.2875.6801.5564 1.368.8577 2.0431 1.4457-3.3988 2.9122-6.78896 4.3469-10.19237 1.1575-.01769 2.3159-.00393 3.4742-.0066-.0028 4.59939-.0015 9.19877-.0008 13.79817-.8355-.002-1.6705.0066-2.5054-.0045.009-3.3943-.0007-6.7884.004-10.18325.0015-.15252-.004-.30504-.0152-.45742-.0489.07092-.0923.14451-.1304.22077-1.4346 3.4742-2.897 6.9387-4.3234 10.4164-.5944.0205-1.1894.0014-1.7843.0104-1.4802-3.4742-2.9419-6.9564-4.4144-10.4334-.0386-.07232-.08-.14268-.1248-.21023-.0303 1.48711-.0047 2.97553-.013 4.46263.0006 2.0595-.0013 4.1189.0006 6.1784-.788.002-1.5759 0-2.3633.0007-.0008-4.5999-.0014-9.19999 0-13.79993Zm25.8588 3.90048c1.198-.32512 2.4902-.31219 3.6878.01053.2468.06573.486.15701.7081.2813-.0138.7536 0 1.50802-.0076 2.26252-.8007-.5829-1.816-.9522-2.8337-.83-.808.0696-1.5788.4692-2.0619 1.0915-.6213.7714-.7647 1.7958-.6579 2.7396.08.7388.4006 1.4768 1.0033 1.9663.626.5302 1.5034.7181 2.3227.659.8095-.0888 1.5734-.4154 2.2276-.8715.007.7143-.0035 1.4287.0055 2.143-1.0151.5758-2.2318.7243-3.3934.6699-1.1885-.06-2.3737-.489-3.2342-1.2854-.9349-.859-1.4423-2.0839-1.5023-3.3109-.0606-1.2755.2117-2.6061.9817-3.6713.6452-.90883 1.6545-1.55218 2.7543-1.85455Zm27.1192-.15041c1.1479-.19254 2.3497-.05126 3.436.34112.0015.72551 0 1.45014.0007 2.17514-.7588-.4976-1.6861-.765-2.6073-.7341-.4639.017-.9741.2043-1.1858.6248-.1683.416-.0517.9615.3599 1.2106.7037.4487 1.5436.6394 2.2731 1.0415.5742.3074 1.1313.7096 1.4223 1.2894.5466 1.0856.3151 2.5202-.6463 3.3298-.9175.8173-2.2391 1.0436-3.4546 1.0002-.8631-.0534-1.7305-.2156-2.5239-.5522.0032-.7629-.005-1.5252.0038-2.2875.6675.4619 1.4378.7927 2.2524.9266.5676.0879 1.1847.092 1.7133-.1497.5063-.2398.5972-.9252.2966-1.3447-.2813-.3231-.6943-.5011-1.0837-.6759-.7315-.3135-1.5002-.5758-2.1428-1.0456-.4516-.3358-.7936-.8091-.9273-1.3426-.1985-.7866-.1366-1.673.3433-2.36048.5481-.80107 1.5002-1.28137 2.4703-1.44638Zm-17.172.31095c.6851-.39224 1.5561-.42511 2.3041-.18524-.0032.78927 0 1.57845-.0019 2.36765-.4896-.3022-1.1005-.4317-1.6782-.3759-.7047.0762-1.2632.5921-1.5526 1.1837-.3145.6261-.3736 1.3343-.3537 2.0191 0 1.5767.0007 3.1532 0 4.7297h-2.4475c-.0021-3.295.0028-6.5905-.0021-9.88548.817-.00984 1.634-.0059 2.4511-.00211-.0034.56583 0 1.13166-.0021 1.69819.2654-.61583.6604-1.21382 1.2829-1.54961Zm-17.8132-.14822c.8232-.00323 1.6472-.0111 2.4704.00393-.0096 3.2944-.0008 6.5891-.0042 9.8835h-2.4647c-.0019-3.2955.0007-6.5912-.0015-9.88743Z"/>
  <path fill="#777" fill-rule="evenodd" d="M77.5686 8.72948c-1.1058-.47974-2.3626-.5442-3.5541-.39969-1.2511.15069-2.4693.71175-3.2638 1.66266-.7252.84895-1.0783 1.93985-1.1457 3.02225-.1002 1.2756.1233 2.6293.9092 3.6938.6695.9188 1.7264 1.5502 2.8682 1.7829.9542.1913 1.9524.192 2.9067.0025 1.1163-.2188 2.1587-.8075 2.8502-1.6762.6757-.8181 1.0148-1.8501 1.0912-2.8798.078-1.0547-.0339-2.147-.4936-3.1194-.4309-.91355-1.2085-1.67641-2.1683-2.08902Zm-.737 2.15002c-.5363-.5171-1.3305-.7182-2.0765-.6716-.5935.0316-1.1933.2229-1.6334.6145-.6066.5239-.8838 1.3046-.9591 2.0635-.0825.8345-.0227 1.7145.3774 2.4754.311.5908.8824 1.055 1.5561 1.2236.6618.1637 1.382.1499 2.0234-.0848.548-.2036.9825-.6335 1.2197-1.142.3583-.7545.3937-1.6029.3495-2.4171-.0615-.7441-.2832-1.5239-.8571-2.0615Zm20.6557-2.07602c-1.1307-.54421-2.4462-.62356-3.685-.47708-.999.12233-1.9808.48367-2.7433 1.12155-.9306.76425-1.4766 1.88795-1.6374 3.03745-.1532 1.1493-.1013 2.3599.3902 3.4355.4716 1.0553 1.4022 1.9124 2.522 2.3322 1.1051.4147 2.3337.4612 3.4968.282 1.1893-.1872 2.3159-.7834 3.0522-1.7008.7868-.9475 1.1252-2.1738 1.1232-3.3685.017-.7997-.0877-1.6104-.3862-2.3617-.3819-.9816-1.1465-1.83072-2.1325-2.30062Zm-1.026 1.96542c-.539-.4512-1.2878-.6057-1.989-.5591-.6867.0368-1.3679.3188-1.8118.8286-.4867.5459-.6956 1.2668-.7522 1.9694-.0587.7254 0 1.4767.2944 2.1548.2447.5692.7096 1.0639 1.3093 1.3058.5557.228 1.1818.2689 1.776.1841.5537-.0775 1.0902-.3299 1.4508-.7439.3576-.4121.5465-.9311.6416-1.4516.12-.6988.1214-1.4183-.0206-2.1135-.1263-.5928-.4014-1.1815-.8985-1.5746Z" clip-rule="evenodd"/>
  <path fill="#02A4EF" d="M0 12.0576c3.82647.0013 7.6528-.0005 11.4793.0013.0006 3.6472 0 7.2937 0 10.9408H0V12.0576Z"/>
  <path fill="#FFB902" d="M12.6521 12.0594c3.8257-.0012 7.6521-.0007 11.4785-.0007v10.9415H12.6514c.0007-3.6471-.0008-7.2943.0007-10.9408Z"/>
</svg>

<svg width="113" height="23" viewBox="0 0 113 23" fill="none" xmlns="http://www.w3.org/2000/svg">
<path d="M0 0H11.4793C11.4785 3.6472 11.4793 7.29427 11.4785 10.9415C7.6528 10.9415 3.82647 10.9415 0 10.9415V0V0Z" fill="#F25022"/>
<path d="M12.6513 0H24.1306C24.1306 3.6472 24.1313 7.29427 24.1298 10.9415C20.3041 10.9408 16.4778 10.9415 12.652 10.9415C12.6506 7.29427 12.6513 3.6472 12.6513 0Z" fill="#80BA01"/>
<path d="M103.516 4.16937C104.575 3.51281 105.942 3.45172 107.135 3.76448C107.145 4.44014 107.136 5.11621 107.139 5.79228C106.573 5.55452 105.906 5.39933 105.31 5.6326C104.837 5.81138 104.555 6.27399 104.482 6.73659C104.393 7.32349 104.451 7.91811 104.435 8.50824C105.646 8.51091 106.857 8.50894 108.067 8.5095C108.077 7.7604 108.058 7.01059 108.078 6.26135C108.901 6.03805 109.715 5.78765 110.534 5.55241C110.541 6.53928 110.525 7.52713 110.543 8.51484C111.362 8.5036 112.181 8.51217 113 8.5095V10.4311C112.178 10.399 111.355 10.4224 110.534 10.4199C110.537 11.5246 110.534 12.6293 110.535 13.7345C110.548 14.3464 110.501 14.9614 110.576 15.5713C110.621 15.9309 110.758 16.3291 111.112 16.5151C111.705 16.8311 112.456 16.6933 113 16.3461V18.2867C112.29 18.5804 111.498 18.6699 110.73 18.6179C110.002 18.5666 109.248 18.3143 108.773 17.7621C108.224 17.1386 108.083 16.294 108.072 15.5044C108.066 13.8088 108.073 12.1133 108.069 10.4172C106.858 10.4165 105.646 10.416 104.436 10.4179C104.434 13.0785 104.435 15.7396 104.435 18.4003C103.608 18.4003 102.78 18.4003 101.952 18.4003C101.952 15.7401 101.949 13.0807 101.954 10.4206C101.378 10.4101 100.802 10.4233 100.226 10.412C100.228 9.78048 100.231 9.14836 100.224 8.5161C100.797 8.5036 101.371 8.50894 101.945 8.51287C101.987 7.67319 101.853 6.80892 102.116 5.99072C102.339 5.25229 102.834 4.58591 103.516 4.16937Z" fill="#777777"/>
<path d="M50.3617 4.3068C50.8621 4.23447 51.404 4.39752 51.7357 4.77067C52.1247 5.17949 52.1963 5.83015 51.9081 6.30778C51.5895 6.84664 50.8767 7.09691 50.2555 6.96756C49.6109 6.85718 49.0737 6.28601 49.1027 5.64926C49.0841 4.97908 49.6722 4.38165 50.3617 4.3068Z" fill="#777777"/>
<path d="M31.3353 4.59997C32.539 4.59997 33.7421 4.59997 34.9459 4.59997C36.0697 7.31986 37.2018 10.0371 38.3269 12.7571C38.6144 13.4372 38.8833 14.1251 39.1846 14.8002C40.6303 11.4014 42.0968 8.01124 43.5315 4.60783C44.689 4.59014 45.8474 4.6039 47.0057 4.60123C47.0029 9.20062 47.0042 13.8 47.0049 18.3994C46.1694 18.3974 45.3344 18.406 44.4995 18.3949C44.5085 15.0006 44.4988 11.6065 44.5035 8.21165C44.505 8.05913 44.4995 7.90661 44.4883 7.75423C44.4394 7.82515 44.396 7.89874 44.3579 7.975C42.9233 11.4492 41.4609 14.9137 40.0345 18.3914C39.4401 18.4119 38.8451 18.3928 38.2502 18.4018C36.77 14.9276 35.3083 11.4454 33.8358 7.9684C33.7972 7.89608 33.7558 7.82572 33.711 7.75817C33.6807 9.24528 33.7063 10.7337 33.698 12.2208C33.6986 14.2803 33.6967 16.3397 33.6986 18.3992C32.9106 18.4012 32.1227 18.3992 31.3353 18.3999C31.3345 13.8 31.3339 9.19991 31.3353 4.59997Z" fill="#777777"/>
<path d="M57.1941 8.50045C58.3921 8.17533 59.6843 8.18826 60.8819 8.51098C61.1287 8.57671 61.3679 8.66799 61.59 8.79228C61.5762 9.54588 61.59 10.3003 61.5824 11.0548C60.7817 10.4719 59.7664 10.1026 58.7487 10.2248C57.9407 10.2944 57.1699 10.694 56.6868 11.3163C56.0655 12.0877 55.9221 13.1121 56.0289 14.0559C56.1089 14.7947 56.4295 15.5327 57.0322 16.0222C57.6582 16.5524 58.5356 16.7403 59.3549 16.6812C60.1644 16.5924 60.9283 16.2658 61.5825 15.8097C61.5895 16.524 61.579 17.2384 61.588 17.9527C60.5729 18.5285 59.3562 18.677 58.1946 18.6226C57.0061 18.5626 55.8209 18.1336 54.9604 17.3372C54.0255 16.4782 53.5181 15.2533 53.4581 14.0263C53.3975 12.7508 53.6698 11.4202 54.4398 10.355C55.085 9.44617 56.0943 8.80282 57.1941 8.50045Z" fill="#777777"/>
<path d="M84.3133 8.35004C85.4612 8.1575 86.663 8.29878 87.7493 8.69116C87.7508 9.41667 87.7493 10.1413 87.75 10.8663C86.9912 10.3687 86.0639 10.1013 85.1427 10.1322C84.6788 10.1492 84.1686 10.3365 83.9569 10.757C83.7886 11.173 83.9052 11.7185 84.3168 11.9676C85.0205 12.4163 85.8604 12.607 86.5899 13.0091C87.1641 13.3165 87.7212 13.7187 88.0122 14.2985C88.5588 15.3841 88.3273 16.8187 87.3659 17.6283C86.4484 18.4456 85.1268 18.6719 83.9113 18.6285C83.0482 18.5751 82.1808 18.4129 81.3874 18.0763C81.3906 17.3134 81.3824 16.5511 81.3912 15.7888C82.0587 16.2507 82.829 16.5815 83.6436 16.7154C84.2112 16.8033 84.8283 16.8074 85.3569 16.5657C85.8632 16.3259 85.9541 15.6405 85.6535 15.221C85.3722 14.8979 84.9592 14.7199 84.5698 14.5451C83.8383 14.2316 83.0696 13.9693 82.427 13.4995C81.9754 13.1637 81.6334 12.6904 81.4997 12.1569C81.3012 11.3703 81.3631 10.4839 81.843 9.79642C82.3911 8.99535 83.3432 8.51505 84.3133 8.35004Z" fill="#777777"/>
<path d="M67.1413 8.66099C67.8264 8.26875 68.6974 8.23588 69.4454 8.47575C69.4422 9.26502 69.4454 10.0542 69.4435 10.8434C68.9539 10.5412 68.343 10.4117 67.7653 10.4675C67.0606 10.5437 66.5021 11.0596 66.2127 11.6512C65.8982 12.2773 65.8391 12.9855 65.859 13.6703C65.859 15.247 65.8597 16.8235 65.859 18.4C65.0427 18.4 64.2272 18.4 63.4115 18.4C63.4094 15.105 63.4143 11.8095 63.4094 8.51452C64.2264 8.50468 65.0434 8.50862 65.8605 8.51241C65.8571 9.07824 65.8605 9.64407 65.8584 10.2106C66.1238 9.59477 66.5188 8.99678 67.1413 8.66099Z" fill="#777777"/>
<path d="M49.3281 8.51277C50.1513 8.50954 50.9753 8.50167 51.7985 8.5167C51.7889 11.8111 51.7977 15.1058 51.7943 18.4002C50.9726 18.4002 50.1509 18.4002 49.3296 18.4002C49.3277 15.1047 49.3303 11.809 49.3281 8.51277Z" fill="#777777"/>
<path fill-rule="evenodd" clip-rule="evenodd" d="M77.5686 8.72948C76.4628 8.24974 75.206 8.18528 74.0145 8.32979C72.7634 8.48048 71.5452 9.04154 70.7507 9.99245C70.0255 10.8414 69.6724 11.9323 69.605 13.0147C69.5048 14.2903 69.7283 15.644 70.5142 16.7085C71.1837 17.6273 72.2406 18.2587 73.3824 18.4914C74.3366 18.6827 75.3348 18.6834 76.2891 18.4939C77.4054 18.2751 78.4478 17.6864 79.1393 16.8177C79.815 15.9996 80.1541 14.9676 80.2305 13.9379C80.3085 12.8832 80.1966 11.7909 79.7369 10.8185C79.306 9.90495 78.5284 9.14209 77.5686 8.72948ZM76.8316 10.8795C76.2953 10.3624 75.5011 10.1613 74.7551 10.2079C74.1616 10.2395 73.5618 10.4308 73.1217 10.8224C72.5151 11.3463 72.2379 12.127 72.1626 12.8859C72.0801 13.7204 72.1399 14.6004 72.54 15.3613C72.851 15.9521 73.4224 16.4163 74.0961 16.5849C74.7579 16.7486 75.4781 16.7348 76.1195 16.5001C76.6675 16.2965 77.102 15.8666 77.3392 15.3581C77.6975 14.6036 77.7329 13.7552 77.6887 12.941C77.6272 12.1969 77.4055 11.4171 76.8316 10.8795Z" fill="#777777"/>
<path fill-rule="evenodd" clip-rule="evenodd" d="M97.4873 8.80348C96.3566 8.25927 95.0411 8.17992 93.8023 8.3264C92.8033 8.44873 91.8215 8.81007 91.059 9.44795C90.1284 10.2122 89.5824 11.3359 89.4216 12.4854C89.2684 13.6347 89.3203 14.8453 89.8118 15.9209C90.2834 16.9762 91.214 17.8333 92.3338 18.2531C93.4389 18.6678 94.6675 18.7143 95.8306 18.5351C97.0199 18.3479 98.1465 17.7517 98.8828 16.8343C99.6696 15.8868 100.008 14.6605 100.006 13.4658C100.023 12.6661 99.9183 11.8554 99.6198 11.1041C99.2379 10.1225 98.4733 9.27338 97.4873 8.80348ZM96.4613 10.7689C95.9223 10.3177 95.1735 10.1632 94.4723 10.2098C93.7856 10.2466 93.1044 10.5286 92.6605 11.0384C92.1738 11.5843 91.9649 12.3052 91.9083 13.0078C91.8496 13.7332 91.9083 14.4845 92.2027 15.1626C92.4474 15.7318 92.9123 16.2265 93.512 16.4684C94.0677 16.6964 94.6938 16.7373 95.288 16.6525C95.8417 16.575 96.3782 16.3226 96.7388 15.9086C97.0964 15.4965 97.2853 14.9775 97.3804 14.457C97.5004 13.7582 97.5018 13.0387 97.3598 12.3435C97.2335 11.7507 96.9584 11.162 96.4613 10.7689Z" fill="#777777"/>
<path d="M0 12.0576C3.82647 12.0589 7.6528 12.0571 11.4793 12.0589C11.4799 15.7061 11.4793 19.3526 11.4793 22.9997H0V12.0576Z" fill="#02A4EF"/>
<path d="M12.6521 12.0594C16.4778 12.0582 20.3042 12.0587 24.1306 12.0587C24.1306 15.7059 24.1306 19.353 24.1306 23.0002H12.6514C12.6521 19.3531 12.6506 15.7059 12.6521 12.0594Z" fill="#FFB902"/>
</svg>
